dist/svg/static/my-dealer-small.svg

<svg xmlns="http://www.w3.org/2000/svg" width="24" height="24" viewBox="0 0 24 24"><g fill="none" stroke="currentColor"><path d="M9 15.5H3.5m2.5 6H4.493a.992.992 0 0 1-.993-.995V.5h9v6.422" stroke-miterlimit="10"/><path d="M7.5 23.5v-4.922a1.046 1.046 0 0 1 .968-1.078h11.064a1.046 1.046 0 0 1 .968 1.078V23.5h-13z"/><rect x="10.5" y="8.5" width="7" height="7" rx="2" ry="2"/></g></svg>

<?xml version="1.0" encoding="UTF-8" standalone="no"?>
<svg width="24px" height="24px" viewBox="0 0 24 24" version="1.1" xmlns="http://www.w3.org/2000/svg" xmlns:xlink="http://www.w3.org/1999/xlink">
    <!-- Generator: sketchtool 46.2 (44496) - http://www.bohemiancoding.com/sketch -->
    <title>my-dealer-small</title>
    <desc>Created with sketchtool.</desc>
    <defs></defs>
    <g id="icons-published" stroke="none" stroke-width="1" fill="none" fill-rule="evenodd">
        <g id="briefing" transform="translate(-1220.000000, -1050.000000)"></g>
        <g id="my-dealer-small" stroke="#000000">
            <path d="M9,15.5 L3.5,15.5 M6,21.5 L4.5,21.5 C4,21.5 3.5,21.1 3.5,20.5 C3.5,20.5 3.5,20.5 3.5,20.5 L3.5,0.5 L12.5,0.5 L12.5,6.9" id="Shape"></path>
            <path d="M7.5,23.5 L7.5,18.6 C7.5,18 7.9,17.6 8.5,17.5 L19.6,17.5 C20.2,17.5 20.6,18 20.6,18.6 L20.6,23.5 C20.5,23.5 7.5,23.5 7.5,23.5 Z" id="Shape"></path>
            <path d="M12.5,8.5 L15.5,8.5 C16.6,8.5 17.5,9.4 17.5,10.5 L17.5,13.5 C17.5,14.6 16.6,15.5 15.5,15.5 L12.5,15.5 C11.4,15.5 10.5,14.6 10.5,13.5 L10.5,10.5 C10.5,9.4 11.4,8.5 12.5,8.5 Z" id="Shape"></path>
        </g>
    </g>
</svg>
